X: 1
T: Dan O'Keeffe's Slide
C:
%D:
R: slide, jig
S: Fiddle Hell Online 2022-4-7 handout for Matt Cranitch workshop
B: Matt Cranitch "The Irish Fiddle Book"
Z: 2022 John Chambers <jc:trillian.mit.edu>
M: 12/8
L: 1/8
K: Ador
|:\
A2e e2d BAB d2B | A2e e2d B2G G2B |\
A2e e2d BAB d3  | BAB d2e B2A A3 :|
|:\
e2a a2b a2g e2d | efg a2b a2g e2f |\
g3  gfe d2B G2A | BAB d2e B2A A3 :|
